X: 21712
T: The NEW BRIDGE OF GLASGOW
C: Printed for the first time.--T. Porteus.
Q: "Strathspey."
%R: strathspey
B: W. Hamilton "Universal Tune-Book" Vol. 2 Glasgow 1846 p.171 #2
S: http://s3-eu-west-1.amazonaws.com/itma.dl.printmaterial/book_pdfs/hamiltonvol2web.pdf
Z: 2016 John Chambers <jc:trillian.mit.edu>
M: C|
L: 1/16
K: Gm
% - - - - - - - - - - - - - - - - - - - - - - - - -
D2 |\
G3AB3c AF3 F4 | G3AB3c dg3 g4 |\
f3dc2B2 ABcB A2F2 | G3AB3c dD3G2 :| G2 |\
G3gg3a f3gf2c2 | dg3g2d2 gaba g2d2 |
dg3g3a f3gf2c2 | d2g2 bag^f g4 g2G2 |\
G3gg3a f3gf2c2 | dg3g3d gaba g2d2 |\
fa3df3 cf3 AF3 | G3AB3c d2D2G2 |]
% - - - - - - - - - - - - - - - - - - - - - - - - -

%%sep 1 1 500
%%sep 1 1 500

